app/frontend/apps/desktop/pages/ticket-overviews/components/assets/confetti.svg

<svg width="608" height="396" viewBox="0 0 608 396" fill="none" xmlns="http://www.w3.org/2000/svg">
<g clip-path="url(#clip0_11257_9805)">
<rect x="145" y="50" width="7.256" height="3.96" transform="rotate(-161 145 50)" fill="#FE006B" fill-opacity="0.9"/>
<rect x="476" y="93" width="11.256" height="5.96" transform="rotate(-26 476 93)" fill="#23A2CD" fill-opacity="0.9"/>
<rect x="526" y="185" width="4.256" height="5.96" transform="rotate(-42 526 185)" fill="#23A2CD" fill-opacity="0.75"/>
<rect x="250" y="238" width="6.256" height="6.96" transform="rotate(-145 250 238)" fill="#FE006B" fill-opacity="0.9"/>
<rect x="20" y="193" width="9.256" height="6.96" transform="rotate(50 20 193)" fill="#23A2CD" fill-opacity="0.65"/>
<rect x="579" y="156" width="22.256" height="3.96" transform="rotate(33 579 156)" fill="#FFCD32"/>
<rect x="272" y="89" width="10.256" height="6.96" transform="rotate(-15 272 89)" fill="#FFCD32" fill-opacity="0.85"/>
<rect x="345" y="79" width="16.256" height="5.96" transform="rotate(-165 345 79)" fill="#23A2CD" fill-opacity="0.6"/>
<rect x="202" y="395" width="5.256" height="3.96" transform="rotate(-118 202 395)" fill="#23A2CD" fill-opacity="0.6"/>
<rect x="499" y="285" width="22.256" height="6.96" transform="rotate(136 499 285)" fill="#23A2CD"/>
<rect x="325" y="82" width="10.256" height="4.96" transform="rotate(57 325 82)" fill="#FE006B" fill-opacity="0.6"/>
<rect x="65" y="96" width="13.256" height="3.96" transform="rotate(-54 65 96)" fill="#FE006B" fill-opacity="0.45"/>
<rect x="209" y="282" width="22.256" height="4.96" transform="rotate(-124 209 282)" fill="#FE006B" fill-opacity="0.9"/>
<rect x="419" y="359" width="18.256" height="3.96" transform="rotate(-28 419 359)" fill="#FFCD32"/>
<rect x="558" y="202" width="8.256" height="6.96" transform="rotate(-118 558 202)" fill="#FE006B" fill-opacity="0.9"/>
<rect x="126" y="248" width="10.256" height="4.96" transform="rotate(-178 126 248)" fill="#FE006B" fill-opacity="0.85"/>
<rect x="129" y="377" width="24.256" height="4.96" transform="rotate(-118 129 377)" fill="#FFCD32"/>
<rect x="164" y="20" width="7.256" height="7.96" transform="rotate(72 164 20)" fill="#FE006B"/>
<rect x="184" y="66" width="12.256" height="7.96" transform="rotate(-173 184 66)" fill="#FFCD32" fill-opacity="0.85"/>
<rect x="190" y="125" width="12.256" height="6.96" transform="rotate(48 190 125)" fill="#FFCD32"/>
<rect x="233" y="18" width="4.256" height="5.96" transform="rotate(-13 233 18)" fill="#23A2CD" fill-opacity="0.35"/>
<circle cx="497.52" cy="321.52" r="1.52" fill="#FFCD32" fill-opacity="0.65"/>
<circle cx="142.52" cy="6.52" r="3.52" fill="#FFCD32" fill-opacity="0.6"/>
<circle cx="482.02" cy="109.02" r="4.02" fill="#FFCD32" fill-opacity="0.65"/>
<circle cx="161.02" cy="181.02" r="3.02" fill="#FE006B" fill-opacity="0.75"/>
<circle cx="184.52" cy="353.52" r="3.52" fill="#FE006B" fill-opacity="0.85"/>
<circle cx="485.52" cy="270.52" r="1.52" fill="#FFCD32"/>
<circle cx="283.52" cy="252.52" r="1.52" fill="#FFCD32" fill-opacity="0.75"/>
<circle cx="606.52" cy="308.52" r="1.52" fill="#FE006B" fill-opacity="0.85"/>
<circle cx="488.52" cy="241.52" r="4.52" fill="#FE006B"/>
<circle cx="339.02" cy="24.02" r="2.02" fill="#FE006B" fill-opacity="0.65"/>
<circle cx="106.02" cy="314.02" r="3.02" fill="#FFCD32" fill-opacity="0.65"/>
<circle cx="573.02" cy="314.02" r="2.02" fill="#FE006B"/>
<circle cx="499.52" cy="189.52" r="2.52" fill="#23A2CD" fill-opacity="0.35"/>
<circle cx="445.52" cy="313.52" r="1.52" fill="#FE006B" fill-opacity="0.35"/>
<circle cx="96.02" cy="278.02" r="2.02" fill="#23A2CD" fill-opacity="0.75"/>
<circle cx="368.02" cy="30.02" r="3.02" fill="#FFCD32" fill-opacity="0.6"/>
<circle cx="559.02" cy="242.02" r="3.02" fill="#FE006B" fill-opacity="0.65"/>
<circle cx="535.52" cy="395.52" r="1.52" fill="#FFCD32" fill-opacity="0.45"/>
<circle cx="354.02" cy="127.02" r="4.02" fill="#FFCD32" fill-opacity="0.85"/>
<circle cx="109.52" cy="113.52" r="4.52" fill="#FE006B"/>
<circle cx="7.02" cy="157.02" r="4.02" fill="#FFCD32" fill-opacity="0.85"/>
<circle cx="480.52" cy="283.52" r="2.52" fill="#FFCD32" fill-opacity="0.6"/>
<path d="M196.299 374.991L192.183 379.253L186.858 376.656L187.682 370.788L193.517 369.76L196.299 374.991Z" fill="#23A2CD" fill-opacity="0.35"/>
<path d="M129.124 49.0021L125.998 50.664L122.996 48.7881L123.12 45.2503L126.246 43.5883L129.248 45.4642L129.124 49.0021Z" fill="#FE006B" fill-opacity="0.6"/>
<path d="M505.955 242.061L499.849 240.077L501.833 233.971L507.939 235.955L505.955 242.061Z" fill="#FFCD32" fill-opacity="0.35"/>
<path d="M212.525 16.4849L215.194 11.8628L220.414 12.9725L220.972 18.2803L216.097 20.4511L212.525 16.4849Z" fill="#FFCD32" fill-opacity="0.45"/>
<path d="M148.082 314.522L147.293 310.051L150.771 307.133L155.037 308.686L155.826 313.157L152.348 316.075L148.082 314.522Z" fill="#FE006B" fill-opacity="0.85"/>
<path d="M481.223 334.073L480.039 339.204L476.188 335.613L481.223 334.073Z" fill="#FFCD32"/>
<path d="M100.164 362.667L102.662 354.498L110.83 356.996L108.333 365.164L100.164 362.667Z" fill="#23A2CD" fill-opacity="0.85"/>
<path d="M303.108 330.338L297.792 329.873L296.591 324.673L301.166 321.924L305.194 325.425L303.108 330.338Z" fill="#FFCD32" fill-opacity="0.45"/>
<path d="M71.6776 52.6717L65.6587 51.5017L69.6813 46.8743L71.6776 52.6717Z" fill="#23A2CD" fill-opacity="0.45"/>
<path d="M515.848 369.581L520.115 363.01L526.686 367.277L522.419 373.848L515.848 369.581Z" fill="#FFCD32"/>
<path d="M219.45 254.656L214.759 252.265L219.175 249.397L219.45 254.656Z" fill="#FE006B"/>
<path d="M265.177 330.889L272.251 331.508L273.848 338.426L267.762 342.083L262.403 337.425L265.177 330.889Z" fill="#FE006B" fill-opacity="0.65"/>
<path d="M91.9723 285.648L87.7939 282.83L88.1455 277.802L92.6754 275.593L96.8538 278.411L96.5022 283.439L91.9723 285.648Z" fill="#FE006B" fill-opacity="0.35"/>
<path d="M297.071 373.848L292.228 368.655L295.671 362.444L302.641 363.799L303.506 370.847L297.071 373.848Z" fill="#FE006B"/>
<path d="M267.553 159.734L273.372 157.02L276.085 162.839L270.266 165.553L267.553 159.734Z" fill="#FFCD32" fill-opacity="0.75"/>
<path d="M357.268 97.6674L356.9 92.4147L361.633 94.723L357.268 97.6674Z" fill="#FFCD32"/>
<path d="M89.5425 94.8603L93.3141 93.4125L96.4538 95.955L95.8218 99.9452L92.0501 101.393L88.9105 98.8506L89.5425 94.8603Z" fill="#FFCD32"/>
<path d="M376.034 379.259L375.809 383.552L371.516 383.327L371.741 379.034L376.034 379.259Z" fill="#FFCD32"/>
<path d="M572.84 246.048L575.543 243.046L579.495 243.886L580.743 247.728L578.04 250.731L574.088 249.891L572.84 246.048Z" fill="#FFCD32" fill-opacity="0.6"/>
<path d="M377.437 90.314L383.253 89.1835L386.126 94.3655L382.085 98.6986L376.715 96.1947L377.437 90.314Z" fill="#23A2CD" fill-opacity="0.75"/>
<path d="M169.735 356.95L167.521 360.635L163.836 358.421L166.05 354.735L169.735 356.95Z" fill="#23A2CD" fill-opacity="0.9"/>
<path d="M181.527 158.614L187.05 162.065L185.474 168.384L178.977 168.838L176.538 162.8L181.527 158.614Z" fill="#FFCD32"/>
<path d="M151.318 294.403L152.953 302.095L145.474 299.665L151.318 294.403Z" fill="#FE006B"/>
<path d="M385.039 257.071L385.764 259.787L388.502 259.151L386.512 261.137L388.432 263.191L385.717 262.46L384.898 265.149L384.174 262.433L381.435 263.069L383.426 261.083L381.506 259.029L384.221 259.76L385.039 257.071Z" fill="#FE006B" fill-opacity="0.6"/>
<path d="M319.238 23.627L319.196 27.1601L321.85 29.4924L318.317 29.4496L315.984 32.1039L316.027 28.5708L313.373 26.2385L316.906 26.2812L319.238 23.627Z" fill="#FE006B" fill-opacity="0.75"/>
<path d="M382.945 377.034L387.118 376.527L386.746 372.34L389.271 375.701L392.712 373.285L391.064 377.152L394.876 378.924L390.703 379.431L391.075 383.618L388.55 380.258L385.109 382.673L386.757 378.806L382.945 377.034Z" fill="#23A2CD"/>
<path d="M404.506 161.507L405.505 163.759L407.788 162.833L406.337 164.825L408.28 166.339L405.831 166.078L405.491 168.518L404.492 166.267L402.209 167.192L403.659 165.201L401.716 163.687L404.166 163.947L404.506 161.507Z" fill="#FE006B"/>
<path d="M341.614 326.998L345.209 326.299L345.655 322.664L347.43 325.867L351.025 325.168L348.527 327.846L350.303 331.049L346.984 329.502L344.487 332.18L344.933 328.545L341.614 326.998Z" fill="#FE006B" fill-opacity="0.75"/>
<path d="M264.124 108.998L265.777 107.028L264.414 104.847L266.799 105.81L268.452 103.84L268.273 106.405L270.658 107.369L268.162 107.991L267.983 110.557L266.62 108.376L264.124 108.998Z" fill="#FFCD32"/>
<path d="M467.511 71.0415L463.711 68.8474L460.45 71.7837L461.362 67.4913L457.562 65.2972L461.926 64.8385L462.839 60.546L464.623 64.555L468.988 64.0963L465.727 67.0326L467.511 71.0415Z" fill="#FE006B" fill-opacity="0.35"/>
<path d="M428.484 272.29L429.816 275.155L432.723 273.917L430.907 276.503L433.433 278.401L430.286 278.122L429.905 281.258L428.573 278.393L425.666 279.631L427.482 277.045L424.956 275.147L428.103 275.426L428.484 272.29Z" fill="#FE006B" fill-opacity="0.6"/>
<path d="M520.856 197.435L518.675 198.798L519.297 201.293L517.327 199.64L515.146 201.003L516.11 198.618L514.139 196.965L516.705 197.145L517.668 194.76L518.291 197.255L520.856 197.435Z" fill="#23A2CD" fill-opacity="0.75"/>
<path d="M471.84 280.952L469.182 282.632L468.728 285.743L467.048 283.086L463.937 282.632L466.594 280.951L467.048 277.84L468.729 280.497L471.84 280.952Z" fill="#FFCD32"/>
<path d="M58.46 132L56.9637 127.956L52.92 126.46L56.9637 124.964L58.46 120.92L59.9563 124.964L64 126.46L59.9563 127.956L58.46 132Z" fill="#FFCD32" fill-opacity="0.75"/>
<path d="M113 75.04L110.966 75.6206L111.48 77.6727L109.96 76.2012L108.44 77.6727L108.954 75.6206L106.92 75.04L108.954 74.4594L108.44 72.4073L109.96 73.8788L111.48 72.4073L110.966 74.4594L113 75.04Z" fill="#23A2CD" fill-opacity="0.75"/>
<path d="M321.627 47.7615L325.16 47.8043L327.492 45.1501L327.45 48.6832L330.104 51.0155L326.571 50.9727L324.238 53.627L324.281 50.0939L321.627 47.7615Z" fill="#FFCD32" fill-opacity="0.45"/>
<path d="M460.033 257.264L460.981 260.801L464.638 260.992L461.567 262.987L462.514 266.524L459.669 264.219L456.598 266.214L457.91 262.795L455.064 260.491L458.721 260.682L460.033 257.264Z" fill="#FFCD32" fill-opacity="0.6"/>
<path d="M363.347 377.847L365.092 379.979L367.847 380.042L365.715 381.787L365.652 384.542L363.907 382.41L361.153 382.347L363.284 380.602L363.347 377.847Z" fill="#FFCD32" fill-opacity="0.6"/>
<path d="M435.542 299.14L433.944 301.601L435.791 303.882L432.956 303.123L431.357 305.584L431.204 302.653L428.368 301.894L431.109 300.842L430.955 297.91L432.802 300.192L435.542 299.14Z" fill="#FFCD32" fill-opacity="0.75"/>
<path d="M414.948 362.778L411.646 360.788L409.55 364.024L409.622 360.17L405.772 359.973L409.146 358.108L407.392 354.675L410.694 356.665L412.79 353.429L412.718 357.283L416.568 357.48L413.194 359.345L414.948 362.778Z" fill="#FFCD32" fill-opacity="0.9"/>
<path d="M259.606 387.434L261.151 388.879L262.645 387.381L262.167 389.442L264.211 389.987L262.187 390.603L262.737 392.646L261.192 391.201L259.698 392.699L260.176 390.638L258.132 390.093L260.156 389.477L259.606 387.434Z" fill="#FFCD32" fill-opacity="0.75"/>
</g>
<defs>
<clipPath id="clip0_11257_9805">
<rect width="608" height="396" fill="white"/>
</clipPath>
</defs>
</svg>

<svg xmlns="http://www.w3.org/2000/svg" width="608" height="396" fill="none"><g clip-path="url(#a)"><path fill="#FE006B" fill-opacity=".9" d="m145 50-6.86-2.362 1.289-3.745 6.86 2.363z"/><path fill="#23A2CD" fill-opacity=".9" d="m476 93 10.117-4.934 2.613 5.357-10.117 4.934z"/><path fill="#23A2CD" fill-opacity=".75" d="m526 185 3.163-2.848 3.988 4.43-3.163 2.847z"/><path fill="#FE006B" fill-opacity=".9" d="m250 238-5.125-3.588 3.992-5.702 5.125 3.589z"/><path fill="#23A2CD" fill-opacity=".65" d="m20 193 5.95 7.09-5.332 4.474-5.95-7.09z"/><path fill="#FFCD32" d="m579 156 18.665 12.121-2.156 3.322-18.666-12.122z"/><path fill="#FFCD32" fill-opacity=".85" d="m272 89 9.907-2.654 1.8 6.722-9.906 2.655z"/><path fill="#23A2CD" fill-opacity=".6" d="m345 79-15.702-4.207 1.542-5.757 15.703 4.207zM202 395l-2.468-4.64 3.497-1.86 2.467 4.64z"/><path fill="#23A2CD" d="m499 285-16.01 15.46-4.834-5.006 16.01-15.46z"/><path fill="#FE006B" fill-opacity=".6" d="m325 82 5.586 8.601-4.16 2.702-5.586-8.602z"/><path fill="#FE006B" fill-opacity=".45" d="m65 96 7.792-10.724 3.203 2.327-7.791 10.725z"/><path fill="#FE006B" fill-opacity=".9" d="m209 282-12.445-18.451 4.112-2.774 12.445 18.451z"/><path fill="#FFCD32" d="m419 359 16.12-8.57 1.858 3.496-16.119 8.57z"/><path fill="#FE006B" fill-opacity=".9" d="m558 202-3.876-7.29 6.145-3.267 3.876 7.29z"/><path fill="#FE006B" fill-opacity=".85" d="m126 248-10.25-.358.173-4.957 10.25.358z"/><path fill="#FFCD32" d="m129 377-11.388-21.417 4.38-2.328 11.387 21.416z"/><path fill="#FE006B" d="m164 20 2.242 6.9-7.57 2.46-2.242-6.9z"/><path fill="#FFCD32" fill-opacity=".85" d="m184 66-12.165-1.494.97-7.9 12.165 1.493z"/><path fill="#FFCD32" d="m190 125 8.2 9.108-5.171 4.657-8.201-9.108z"/><path fill="#23A2CD" fill-opacity=".35" d="m233 18 4.147-.957 1.34 5.807-4.146.957z"/><circle cx="497.52" cy="321.52" r="1.52" fill="#FFCD32" fill-opacity=".65"/><circle cx="142.52" cy="6.52" r="3.52" fill="#FFCD32" fill-opacity=".6"/><circle cx="482.02" cy="109.02" r="4.02" fill="#FFCD32" fill-opacity=".65"/><circle cx="161.02" cy="181.02" r="3.02" fill="#FE006B" fill-opacity=".75"/><circle cx="184.52" cy="353.52" r="3.52" fill="#FE006B" fill-opacity=".85"/><circle cx="485.52" cy="270.52" r="1.52" fill="#FFCD32"/><circle cx="283.52" cy="252.52" r="1.52" fill="#FFCD32" fill-opacity=".75"/><circle cx="606.52" cy="308.52" r="1.52" fill="#FE006B" fill-opacity=".85"/><circle cx="488.52" cy="241.52" r="4.52" fill="#FE006B"/><circle cx="339.02" cy="24.02" r="2.02" fill="#FE006B" fill-opacity=".65"/><circle cx="106.02" cy="314.02" r="3.02" fill="#FFCD32" fill-opacity=".65"/><circle cx="573.02" cy="314.02" r="2.02" fill="#FE006B"/><circle cx="499.52" cy="189.52" r="2.52" fill="#23A2CD" fill-opacity=".35"/><circle cx="445.52" cy="313.52" r="1.52" fill="#FE006B" fill-opacity=".35"/><circle cx="96.02" cy="278.02" r="2.02" fill="#23A2CD" fill-opacity=".75"/><circle cx="368.02" cy="30.02" r="3.02" fill="#FFCD32" fill-opacity=".6"/><circle cx="559.02" cy="242.02" r="3.02" fill="#FE006B" fill-opacity=".65"/><circle cx="535.52" cy="395.52" r="1.52" fill="#FFCD32" fill-opacity=".45"/><circle cx="354.02" cy="127.02" r="4.02" fill="#FFCD32" fill-opacity=".85"/><circle cx="109.52" cy="113.52" r="4.52" fill="#FE006B"/><circle cx="7.02" cy="157.02" r="4.02" fill="#FFCD32" fill-opacity=".85"/><circle cx="480.52" cy="283.52" r="2.52" fill="#FFCD32" fill-opacity=".6"/><path fill="#23A2CD" fill-opacity=".35" d="m196.299 374.991-4.116 4.262-5.325-2.597.824-5.868 5.835-1.028 2.782 5.231Z"/><path fill="#FE006B" fill-opacity=".6" d="m129.124 49.002-3.126 1.662-3.002-1.876.124-3.538 3.126-1.662 3.002 1.876-.124 3.538Z"/><path fill="#FFCD32" fill-opacity=".35" d="m505.955 242.061-6.106-1.984 1.984-6.106 6.106 1.984-1.984 6.106Z"/><path fill="#FFCD32" fill-opacity=".45" d="m212.525 16.485 2.669-4.622 5.22 1.11.558 5.307-4.875 2.171-3.572-3.966Z"/><path fill="#FE006B" fill-opacity=".85" d="m148.082 314.522-.789-4.471 3.478-2.918 4.266 1.553.789 4.471-3.478 2.918-4.266-1.553Z"/><path fill="#FFCD32" d="m481.223 334.073-1.184 5.131-3.851-3.591 5.035-1.54Z"/><path fill="#23A2CD" fill-opacity=".85" d="m100.164 362.667 2.498-8.169 8.168 2.498-2.497 8.168-8.169-2.497Z"/><path fill="#FFCD32" fill-opacity=".45" d="m303.108 330.338-5.316-.465-1.201-5.2 4.575-2.749 4.028 3.501-2.086 4.913Z"/><path fill="#23A2CD" fill-opacity=".45" d="m71.678 52.672-6.02-1.17 4.023-4.628 1.997 5.798Z"/><path fill="#FFCD32" d="m515.848 369.581 4.267-6.571 6.571 4.267-4.267 6.571-6.571-4.267Z"/><path fill="#FE006B" d="m219.45 254.656-4.691-2.391 4.416-2.868.275 5.259Z"/><path fill="#FE006B" fill-opacity=".65" d="m265.177 330.889 7.074.619 1.597 6.918-6.086 3.657-5.359-4.658 2.774-6.536Z"/><path fill="#FE006B" fill-opacity=".35" d="m91.972 285.648-4.178-2.818.352-5.028 4.53-2.209 4.178 2.818-.352 5.028-4.53 2.209Z"/><path fill="#FE006B" d="m297.071 373.848-4.843-5.193 3.443-6.211 6.97 1.355.865 7.048-6.435 3.001Z"/><path fill="#FFCD32" fill-opacity=".75" d="m267.553 159.734 5.819-2.714 2.713 5.819-5.819 2.714-2.713-5.819Z"/><path fill="#FFCD32" d="m357.268 97.667-.368-5.252 4.733 2.308-4.365 2.944ZM89.543 94.86l3.771-1.448 3.14 2.543-.632 3.99-3.772 1.448-3.14-2.542.633-3.99ZM376.034 379.259l-.225 4.293-4.293-.225.225-4.293 4.293.225Z"/><path fill="#FFCD32" fill-opacity=".6" d="m572.84 246.048 2.703-3.002 3.952.84 1.248 3.842-2.703 3.003-3.952-.84-1.248-3.843Z"/><path fill="#23A2CD" fill-opacity=".75" d="m377.437 90.314 5.816-1.13 2.873 5.181-4.041 4.334-5.37-2.504.722-5.881Z"/><path fill="#23A2CD" fill-opacity=".9" d="m169.735 356.95-2.214 3.685-3.685-2.214 2.214-3.686 3.685 2.215Z"/><path fill="#FFCD32" d="m181.527 158.614 5.523 3.451-1.576 6.319-6.497.454-2.439-6.038 4.989-4.186Z"/><path fill="#FE006B" d="m151.318 294.403 1.635 7.692-7.479-2.43 5.844-5.262Z"/><path fill="#FE006B" fill-opacity=".6" d="m385.039 257.071.725 2.716 2.738-.636-1.99 1.986 1.92 2.054-2.715-.731-.819 2.689-.724-2.716-2.739.636 1.991-1.986-1.92-2.054 2.715.731.818-2.689Z"/><path fill="#FE006B" fill-opacity=".75" d="m319.238 23.627-.042 3.533 2.654 2.332-3.533-.042-2.333 2.654.043-3.533-2.654-2.333 3.533.043 2.332-2.654Z"/><path fill="#23A2CD" d="m382.945 377.034 4.173-.507-.372-4.187 2.525 3.361 3.441-2.416-1.648 3.867 3.812 1.772-4.173.507.372 4.187-2.525-3.36-3.441 2.415 1.648-3.867-3.812-1.772Z"/><path fill="#FE006B" d="m404.506 161.507.999 2.252 2.283-.926-1.451 1.992 1.943 1.514-2.449-.261-.34 2.44-.999-2.251-2.283.925 1.45-1.991-1.943-1.514 2.45.26.34-2.44Z"/><path fill="#FE006B" fill-opacity=".75" d="m341.614 326.998 3.595-.699.446-3.635 1.775 3.203 3.595-.699-2.498 2.678 1.776 3.203-3.319-1.547-2.497 2.678.446-3.635-3.319-1.547Z"/><path fill="#FFCD32" d="m264.124 108.998 1.653-1.97-1.363-2.181 2.385.963 1.653-1.97-.179 2.565 2.385.964-2.496.622-.179 2.566-1.363-2.181-2.496.622Z"/><path fill="#FE006B" fill-opacity=".35" d="m467.511 71.041-3.8-2.194-3.261 2.937.912-4.293-3.8-2.194 4.364-.459.913-4.292 1.784 4.009 4.365-.459-3.261 2.937 1.784 4.008Z"/><path fill="#FE006B" fill-opacity=".6" d="m428.484 272.29 1.332 2.865 2.907-1.238-1.816 2.586 2.526 1.898-3.147-.279-.381 3.136-1.332-2.865-2.907 1.238 1.816-2.586-2.526-1.898 3.147.279.381-3.136Z"/><path fill="#23A2CD" fill-opacity=".75" d="m520.856 197.435-2.181 1.363.622 2.495-1.97-1.653-2.181 1.363.964-2.385-1.971-1.653 2.566.18.963-2.385.623 2.495 2.565.18Z"/><path fill="#FFCD32" d="m471.84 280.952-2.658 1.68-.454 3.111-1.68-2.657-3.111-.454 2.657-1.681.454-3.111 1.681 2.657 3.111.455Z"/><path fill="#FFCD32" fill-opacity=".75" d="m58.46 132-1.496-4.044-4.044-1.496 4.044-1.496 1.496-4.044 1.496 4.044L64 126.46l-4.044 1.496L58.46 132Z"/><path fill="#23A2CD" fill-opacity=".75" d="m113 75.04-2.034.58.514 2.053-1.52-1.472-1.52 1.472.514-2.052-2.034-.581 2.034-.58-.514-2.053 1.52 1.472 1.52-1.472-.514 2.052 2.034.581Z"/><path fill="#FFCD32" fill-opacity=".45" d="m321.627 47.761 3.533.043 2.332-2.654-.042 3.533 2.654 2.333-3.533-.043-2.333 2.654.043-3.533-2.654-2.333Z"/><path fill="#FFCD32" fill-opacity=".6" d="m460.033 257.264.948 3.537 3.657.191-3.071 1.995.947 3.537-2.845-2.305-3.071 1.995 1.312-3.419-2.846-2.304 3.657.191 1.312-3.418ZM363.347 377.847l1.745 2.132 2.755.063-2.132 1.745-.063 2.755-1.745-2.132-2.754-.063 2.131-1.745.063-2.755Z"/><path fill="#FFCD32" fill-opacity=".75" d="m435.542 299.14-1.598 2.461 1.847 2.281-2.835-.759-1.599 2.461-.153-2.931-2.836-.759 2.741-1.052-.154-2.932 1.847 2.282 2.74-1.052Z"/><path fill="#FFCD32" fill-opacity=".9" d="m414.948 362.778-3.302-1.99-2.096 3.236.072-3.854-3.85-.197 3.374-1.865-1.754-3.433 3.302 1.99 2.096-3.236-.072 3.854 3.85.197-3.374 1.865 1.754 3.433Z"/><path fill="#FFCD32" fill-opacity=".75" d="m259.606 387.434 1.545 1.445 1.494-1.498-.478 2.061 2.044.545-2.024.616.55 2.043-1.545-1.445-1.494 1.498.478-2.061-2.044-.545 2.024-.616-.55-2.043Z"/></g><defs><clipPath id="a"><path fill="#fff" d="M0 0h608v396H0z"/></clipPath></defs></svg>
